app/images/icons/google-plus.svg

<?xml version="1.0" encoding="UTF-8"?>
<svg xmlns="http://www.w3.org/2000/svg" xmlns:xlink="http://www.w3.org/1999/xlink" width="16pt" height="16pt" viewBox="0 0 16 16" version="1.1">
<g id="surface1">
<path d="M 5.1875 4.71875 C 6.269531 4.71875 7.25 5.273438 7.8125 6.039062 L 9.144531 4.699219 C 8.347656 3.664062 6.816406 2.84375 5.1875 2.84375 C 2.335938 2.84375 0 5.148438 0 8 C 0 10.851562 2.335938 13.15625 5.1875 13.15625 C 7.550781 13.15625 9.539062 11.570312 10.148438 9.40625 C 10.277344 8.957031 10.34375 8.488281 10.34375 8 L 10.34375 7.53125 L 5.65625 7.53125 L 5.65625 9.40625 L 8.140625 9.40625 C 7.625 10.511719 6.492188 11.28125 5.1875 11.28125 C 3.378906 11.28125 1.875 9.808594 1.875 8 C 1.875 6.191406 3.378906 4.71875 5.1875 4.71875 Z M 5.1875 4.71875 "/>
<path d="M 14.5625 5.65625 L 12.6875 5.65625 L 12.6875 7.0625 L 11.28125 7.0625 L 11.28125 8.9375 L 12.6875 8.9375 L 12.6875 10.34375 L 14.5625 10.34375 L 14.5625 8.9375 L 16 8.9375 L 16 7.0625 L 14.5625 7.0625 Z M 14.5625 5.65625 "/>
</g>
</svg>

<svg xmlns="http://www.w3.org/2000/svg" width="16pt" height="16pt" viewBox="0 0 16 16"><path d="M5.188 4.719c1.082 0 2.062.554 2.625 1.32L9.145 4.7c-.797-1.035-2.329-1.855-3.957-1.855C2.336 2.844 0 5.148 0 8s2.336 5.156 5.188 5.156A5.152 5.152 0 0010.343 8v-.469H5.656v1.875h2.485a3.261 3.261 0 01-2.954 1.875C3.38 11.281 1.876 9.81 1.876 8c0-1.809 1.504-3.281 3.313-3.281zm9.375.937h-1.876v1.407h-1.406v1.875h1.406v1.406h1.876V8.938H16V7.062h-1.438zm0 0"/></svg>
